editor/icons/SnapGrid.svg

<svg clip-rule="evenodd" fill-rule="evenodd" stroke-linejoin="round" stroke-miterlimit="2" viewBox="0 0 16 16" xmlns="http://www.w3.org/2000/svg"><g fill="#e0e0e0"><path d="m7 13h2v2h-2z"/><path d="m13 13h2v2h-2z"/><path d="m7 13h2v-2c0-1.097.903-2 2-2s2 .903 2 2v2h2v-2c0-2.194-1.806-4-4-4s-4 1.806-4 4z" fill-opacity=".8" fill-rule="nonzero"/></g><g fill="#fff" fill-opacity=".6" stroke-width="1.30316"><circle cx="2.021873" cy="2.043098" r="1.099867"/><circle cx="2.021873" cy="6.962987" r="1.099867"/><circle cx="2.021873" cy="11.951797" r="1.099867"/><circle cx="7.052023" cy="2.043098" r="1.099867"/><circle cx="7.052023" cy="6.962987" r="1.099867"/><circle cx="12.040823" cy="2.043098" r="1.099867"/></g></svg>

<svg height="16" width="16" xmlns="http://www.w3.org/2000/svg"><rect
   x="7"
   y="13"
   width="2"
   height="2"
   style="fill:rgb(224,224,224);"
   id="rect1" />
    <rect
   x="13"
   y="13"
   width="2"
   height="2"
   style="fill:rgb(224,224,224);"
   id="rect2" />
    <path
   d="M7,13L9,13L9,11C9,9.903 9.903,9 11,9C12.097,9 13,9.903 13,11L13,13L15,13L15,11C15,8.806 13.194,7 11,7C8.806,7 7,8.806 7,11L7,13Z"
   style="fill:rgb(224,224,224);fill-opacity:0.8;fill-rule:nonzero;"
   id="path2" />
    <circle
   cx="2.0218732"
   cy="2.0430975"
   r="1.099867"
   style="fill:#ffffff;fill-opacity:0.6;stroke-width:1.30316"
   id="circle2" />
    <circle
   cx="2.0218732"
   cy="6.9629874"
   r="1.099867"
   style="fill:#ffffff;fill-opacity:0.6;stroke-width:1.30316"
   id="circle3" />
    <circle
   cx="2.0218732"
   cy="11.951797"
   r="1.099867"
   style="fill:#ffffff;fill-opacity:0.6;stroke-width:1.30316"
   id="circle4" />
    <circle
   cx="7.0520229"
   cy="2.0430975"
   r="1.099867"
   style="fill:#ffffff;fill-opacity:0.6;stroke-width:1.30316"
   id="circle5" />
    <circle
   cx="7.0520229"
   cy="6.9629874"
   r="1.099867"
   style="fill:#ffffff;fill-opacity:0.6;stroke-width:1.30316"
   id="circle6" />
    <circle
   cx="12.040823"
   cy="2.0430975"
   r="1.099867"
   style="fill:#ffffff;fill-opacity:0.6;stroke-width:1.30316"
   id="circle7" />
</svg>
